svgs/light/calendar-days.svg

<svg xmlns="http://www.w3.org/2000/svg" viewBox="0 0 448 512"><!-- Font Awesome Pro 6.0.0-alpha2 by @fontawesome - https://fontawesome.com License - https://fontawesome.com/license (Commercial License) --><path d="M384 64H352V16C352 7.164 344.836 0 336 0S320 7.164 320 16V64H128V16C128 7.164 120.836 0 112 0S96 7.164 96 16V64H64C28.654 64 0 92.654 0 128V448C0 483.346 28.654 512 64 512H384C419.346 512 448 483.346 448 448V128C448 92.654 419.346 64 384 64ZM32 224H128V288.002H32V224ZM160 288.002V224H288V288.002H160ZM288 320.002V384.002H160V320.002H288ZM32 320.002H128V384.002H32V320.002ZM64 480C46.326 480 32 465.674 32 448V416.002H128V480H64ZM160 480V416.002H288V480H160ZM416 448C416 465.674 401.674 480 384 480H320V416.002H416V448ZM416 384.002H320V320.002H416V384.002ZM416 288.002H320V224H416V288.002ZM416 192H32V128C32 110.326 46.326 96 64 96H384C401.674 96 416 110.326 416 128V192Z"/></svg>

<svg xmlns="http://www.w3.org/2000/svg" viewBox="0 0 448 512"><!--! Font Awesome Pro 6.0.0-alpha3 by @fontawesome - https://fontawesome.com License - https://fontawesome.com/license (Commercial License) --><path d="M384 64h-32V16C352 7.164 344.8 0 336 0S320 7.164 320 16V64H128V16C128 7.164 120.8 0 112 0S96 7.164 96 16V64H64C28.65 64 0 92.65 0 128v320c0 35.35 28.65 64 64 64h320c35.35 0 64-28.65 64-64V128C448 92.65 419.3 64 384 64zM32 224h96v64H32V224zM160 288V224h128v64H160zM288 320v64H160v-64H288zM32 320h96v64H32V320zM64 480c-17.67 0-32-14.33-32-32v-31.1h96V480H64zM160 480v-63.1h128V480H160zM416 448c0 17.67-14.33 32-32 32h-64v-63.1h96V448zM416 384h-96v-64h96V384zM416 288h-96V224h96V288zM416 192H32V128c0-17.67 14.33-32 32-32h320c17.67 0 32 14.33 32 32V192z"/></svg>
